; generated by PrusaSlicer 2.7.4 on 2024-07-21 at 21:41:18 UTC

; 

; external perimeters extrusion width = 0.45mm
; perimeters extrusion width = 0.40mm
; infill extrusion width = 0.45mm
; solid infill extrusion width = 0.50mm
; top infill extrusion width = 0.45mm
; first layer extrusion width = 0.56mm

; external perimeters extrusion width = 0.45mm
; perimeters extrusion width = 0.40mm
; infill extrusion width = 0.45mm
; solid infill extrusion width = 0.50mm
; top infill extrusion width = 0.45mm
; first layer extrusion width = 0.56mm

M201 X2500 Y2500 Z800 E2500 ; sets maximum accelerations, mm/sec^2
M203 X300 Y250 Z8 E80 ; sets maximum feedrates, mm / sec
M204 S2500 T2500 ; sets acceleration (S) and retract acceleration (R), mm/sec^2
M205 X15.00 Y10.00 Z2.00 E10.00 ; sets the jerk limits, mm/sec
M205 S0 T0 ; sets the minimum extruding and travel feed rate, mm/sec
;TYPE:Custom
G90 ; use absolute coordinates
M83 ; extruder relative mode
M104 S215 ; set extruder temp
M140 S60 ; set bed temp
M190 S60 ; wait for bed temp
M109 S215 ; wait for extruder temp
G28                                        ; move X/Y/Z to min endstops
G1 Z0.28                                   ; lift nozzle a bit 
G92 E0 
G1 Y3 F1800                                    ; zero the extruded length 
G1 X60  E25 F500                       ; Extrude 25mm of filament in a 5cm line. 
G92 E0                                     ; zero the extruded length again 
G1 E-2 F500                                ; Retract a little 
G1 X70 F4000                              ; Quickly wipe away from the filament line
M117
G21 ; set units to millimeters
G90 ; use absolute coordinates
M82 ; use absolute distances for extrusion
G92 E0
M107
;LAYER_CHANGE
;Z:0.28
;HEIGHT:0.28
G1 E-2 F4800
G92 E0
G1 Z.28 F7200
G1 X102.576 Y109.58
G1 E2 F4800
G92 E0
M204 S2000
;TYPE:Skirt/Brim
;WIDTH:0.56
G1 F3000
G1 X103.855 Y108.649 E.09206
G1 X105.382 Y107.991 E.18882
G1 X106.927 Y107.7 E.28031
G1 X108.509 Y107.752 E.37242
G1 X110.576 Y108.353 E.49769
G1 X111.912 Y109.156 E.5884
G1 X113.024 Y110.192 E.67685
G1 X114.136 Y111.903 E.7956
G1 X114.661 Y113.468 E.89166
G1 X114.755 Y114.412 E.94687
G1 X115.182 Y114.436 E.97176
G1 X115.566 Y112.647 E1.07824
G1 X116.303 Y111.1 E1.17796
G1 X117.574 Y109.582 E1.29318
G1 X118.88 Y108.635 E1.38706
G1 X120.258 Y108.029 E1.47466
G1 X121.908 Y107.702 E1.57255
G1 X123.873 Y107.814 E1.68709
G1 X125.582 Y108.356 E1.79143
G1 X126.911 Y109.155 E1.88167
G1 X128.013 Y110.18 E1.96925
G1 X128.97 Y111.572 E2.06755
G1 X129.574 Y113.107 E2.16355
G1 X129.821 Y115.202 E2.28631
G1 X129.596 Y116.806 E2.38057
G1 X129.021 Y118.33 E2.47536
G1 X128.158 Y119.648 E2.56704
G1 X127.031 Y120.754 E2.65893
G1 X125.264 Y121.781 E2.77787
G1 X123.614 Y122.237 E2.87749
G1 X121.873 Y122.296 E2.97887
G1 X120.397 Y122.014 E3.06632
G1 X119.01 Y121.439 E3.1537
G1 X117.328 Y120.185 E3.27579
G1 X116.337 Y118.954 E3.36776
G1 X115.621 Y117.51 E3.46156
G1 X115.176 Y115.624 E3.57433
G1 X114.762 Y115.642 E3.59845
G1 X114.595 Y116.811 E3.66717
G1 X114.046 Y118.282 E3.75854
G1 X113.162 Y119.644 E3.85303
G1 X111.997 Y120.779 E3.94768
G1 X110.599 Y121.634 E4.04305
G1 X108.916 Y122.184 E4.14609
G1 X106.94 Y122.301 E4.26128
G1 X105.342 Y121.997 E4.35594
G1 X103.852 Y121.342 E4.45066
G1 X102.527 Y120.374 E4.54615
G1 X101.486 Y119.178 E4.63842
G1 X100.668 Y117.635 E4.74005
G1 X100.246 Y116 E4.83832
G1 X100.224 Y114.175 E4.94453
G1 X100.573 Y112.627 E5.03688
G1 X101.306 Y111.094 E5.13577
G1 X102.537 Y109.626 E5.24726
M204 S2500
G1 X102.537 Y109.626 F7200
G1 X102.92 Y109.947
M204 S2000
G1 F3000
G1 X102.938 Y109.926 E5.24887
G1 X104.124 Y109.071 E5.33395
G1 X105.502 Y108.477 E5.42128
G1 X106.991 Y108.196 E5.50946
G1 X108.46 Y108.25 E5.59501
G1 X110.348 Y108.799 E5.70943
G1 X111.591 Y109.54 E5.79364
G1 X112.661 Y110.537 E5.87875
G1 X113.672 Y112.092 E5.98669
G1 X114.177 Y113.598 E6.07913
G1 X114.32 Y115.172 E6.17111
G1 X114.117 Y116.663 E6.25868
G1 X113.587 Y118.081 E6.34678
G1 X112.759 Y119.347 E6.43481
G1 X111.712 Y120.367 E6.51987
G1 X110.363 Y121.193 E6.61192
G1 X108.854 Y121.687 E6.70432
G1 X106.942 Y121.8 E6.81578
G1 X105.467 Y121.512 E6.90324
G1 X104.08 Y120.897 E6.99154
G1 X102.847 Y119.989 E7.08065
G1 X101.883 Y118.873 E7.16647
G1 X101.144 Y117.479 E7.25829
G1 X100.746 Y115.963 E7.3495
G1 X100.725 Y114.199 E7.45216
G1 X101.054 Y112.766 E7.53772
G1 X101.709 Y111.391 E7.62635
G1 X102.882 Y109.993 E7.73255
M204 S2500
G1 X102.882 Y109.993 F7200
G1 X103.256 Y110.313
M204 S2000
G1 F3000
G1 X104.394 Y109.493 E7.81418
G1 X105.672 Y108.948 E7.89503
G1 X107.054 Y108.693 E7.97681
G1 X108.409 Y108.748 E8.05573
G1 X110.121 Y109.245 E8.15947
G1 X111.272 Y109.926 E8.2373
G1 X112.26 Y110.838 E8.31555
G1 X113.21 Y112.284 E8.41624
G1 X113.682 Y113.676 E8.50178
G1 X113.821 Y115.136 E8.58713
G1 X113.638 Y116.517 E8.6682
G1 X113.152 Y117.833 E8.74984
G1 X112.39 Y119.008 E8.83134
G1 X111.384 Y119.989 E8.91311
G1 X110.13 Y120.75 E8.99847
G1 X108.731 Y121.202 E9.08403
G1 X107.005 Y121.304 E9.18465
G1 X105.641 Y121.043 E9.26547
G1 X104.352 Y120.477 E9.3474
G1 X103.206 Y119.64 E9.42999
G1 X102.28 Y118.568 E9.51243
G1 X101.6 Y117.273 E9.59755
G1 X101.237 Y115.868 E9.682
G1 X101.219 Y114.282 E9.7743
G1 X101.534 Y112.906 E9.85645
G1 X102.146 Y111.637 E9.93844
G1 X103.217 Y110.359 E10.03548
M204 S2500
G1 X103.217 Y110.359 F7200
G1 X103.575 Y110.699
M204 S2000
G1 F3000
G1 X104.618 Y109.941 E10.11051
G1 X105.793 Y109.433 E10.18501
G1 X107.062 Y109.194 E10.26016
G1 X108.359 Y109.246 E10.3357
G1 X109.893 Y109.692 E10.42867
G1 X110.994 Y110.342 E10.50308
G1 X111.897 Y111.183 E10.57489
G1 X112.747 Y112.477 E10.66499
G1 X113.188 Y113.755 E10.74367
G1 X113.322 Y115.099 E10.82227
G1 X113.146 Y116.422 E10.89994
G1 X112.694 Y117.631 E10.97505
G1 X111.987 Y118.71 E11.05012
G1 X111.058 Y119.609 E11.12535
G1 X109.898 Y120.306 E11.2041
G1 X108.61 Y120.716 E11.28276
G1 X107.067 Y120.807 E11.37271
G1 X105.813 Y120.573 E11.44695
G1 X104.624 Y120.056 E11.5224
G1 X103.525 Y119.254 E11.60158
G1 X102.679 Y118.266 E11.67728
G1 X102.058 Y117.069 E11.75576
G1 X101.729 Y115.774 E11.83352
G1 X101.712 Y114.365 E11.91552
G1 X102.015 Y113.046 E11.99428
G1 X102.582 Y111.883 E12.06958
G1 X103.536 Y110.745 E12.156
M204 S2500
G1 X103.536 Y110.745 F7200
G1 X103.895 Y111.084
M204 S2000
G1 F3000
G1 X104.843 Y110.388 E12.22444
G1 X105.964 Y109.904 E12.2955
G1 X107.124 Y109.691 E12.36413
G1 X108.306 Y109.744 E12.43299
G1 X109.668 Y110.139 E12.51552
G1 X110.674 Y110.727 E12.58333
G1 X111.535 Y111.529 E12.65181
G1 X112.286 Y112.671 E12.73135
G1 X112.694 Y113.837 E12.80324
G1 X112.822 Y115.066 E12.87515
G1 X112.667 Y116.277 E12.9462
G1 X112.259 Y117.383 E13.0148
G1 X111.619 Y118.371 E13.08331
G1 X110.731 Y119.229 E13.15517
G1 X109.669 Y119.861 E13.22709
G1 X108.49 Y120.23 E13.29898
G1 X107.126 Y120.31 E13.37849
G1 X105.983 Y120.102 E13.4461
G1 X104.896 Y119.636 E13.51493
G1 X103.844 Y118.868 E13.59073
G1 X103.08 Y117.965 E13.65957
G1 X102.516 Y116.868 E13.73135
G1 X102.222 Y115.684 E13.80235
G1 X102.212 Y114.392 E13.87754
G1 X102.495 Y113.189 E13.94946
G1 X103.016 Y112.132 E14.01804
G1 X103.857 Y111.13 E14.09417
M204 S2500
G1 X103.857 Y111.13 F7200
G1 X104.217 Y111.467
M204 S2000
G1 F3000
G1 X105.071 Y110.834 E14.15603
G1 X106.084 Y110.39 E14.2204
G1 X107.185 Y110.188 E14.28554
G1 X108.251 Y110.242 E14.34766
G1 X109.443 Y110.586 E14.41986
G1 X110.397 Y111.144 E14.48418
G1 X111.171 Y111.872 E14.54602
G1 X111.825 Y112.868 E14.61536
G1 X112.2 Y113.922 E14.68046
G1 X112.322 Y115.035 E14.74562
G1 X112.188 Y116.132 E14.80993
G1 X111.8 Y117.183 E14.87513
G1 X111.217 Y118.072 E14.937
G1 X110.408 Y118.847 E15.0022
G1 X109.442 Y119.414 E15.06738
G1 X108.373 Y119.743 E15.13247
G1 X107.184 Y119.812 E15.20178
G1 X106.151 Y119.63 E15.26282
G1 X105.167 Y119.214 E15.32499
G1 X104.164 Y118.482 E15.39725
G1 X103.482 Y117.668 E15.45905
G1 X102.975 Y116.668 E15.5243
G1 X102.714 Y115.594 E15.58862
G1 X102.706 Y114.475 E15.65374
G1 X102.956 Y113.384 E15.71888
G1 X103.451 Y112.38 E15.78402
G1 X104.179 Y111.513 E15.8499
M204 S2500
G1 E14.4499 F4800
;WIPE_START
G1 F5760
G1 X104.217 Y111.467 E14.40266
G1 X104.778 Y111.051 E13.8499
;WIPE_END
G92 E0
G1 X115.795 Y113.956 F7200
G1 E2 F4800
M204 S2000
G1 F3000
G1 X116.031 Y112.833 E2.06678
G1 X116.707 Y111.396 E2.1592
G1 X117.937 Y109.927 E2.2707
G1 X119.107 Y109.081 E2.35472
G1 X120.385 Y108.513 E2.43611
G1 X121.926 Y108.202 E2.5276
G1 X123.795 Y108.308 E2.63654
G1 X125.351 Y108.801 E2.73153
G1 X126.591 Y109.54 E2.81553
G1 X127.619 Y110.489 E2.89695
G1 X128.516 Y111.782 E2.98853
G1 X129.097 Y113.26 E3.08095
G1 X129.321 Y115.166 E3.19263
G1 X129.118 Y116.659 E3.28031
G1 X128.588 Y118.08 E3.36857
G1 X127.755 Y119.351 E3.45701
G1 X126.705 Y120.373 E3.54228
G1 X125.044 Y121.331 E3.65387
G1 X123.511 Y121.747 E3.74631
G1 X121.938 Y121.8 E3.8379
G1 X120.564 Y121.542 E3.91926
G1 X119.23 Y120.989 E4.0033
G1 X117.698 Y119.847 E4.1145
G1 X116.744 Y118.663 E4.20299
G1 X116.082 Y117.314 E4.29044
G1 X115.73 Y115.842 E4.37852
G1 X115.705 Y114.38 E4.46361
G1 X115.782 Y114.015 E4.48532
M204 S2500
G1 X115.782 Y114.015 F7200
G1 X116.266 Y114.118
M204 S2000
G1 F3000
G1 X116.513 Y112.967 E4.55383
G1 X117.144 Y111.639 E4.63939
G1 X118.257 Y110.312 E4.74018
G1 X119.335 Y109.527 E4.81778
G1 X120.562 Y108.981 E4.89594
G1 X121.994 Y108.698 E4.98089
G1 X122.996 Y108.725 E5.03922
G1 X123.671 Y108.793 E5.0787
G1 X125.122 Y109.246 E5.16716
G1 X126.272 Y109.926 E5.24491
G1 X127.259 Y110.837 E5.32308
G1 X128.087 Y112.041 E5.40812
G1 X128.62 Y113.411 E5.49367
G1 X128.822 Y115.132 E5.59451
G1 X128.639 Y116.513 E5.67558
G1 X128.153 Y117.832 E5.75738
G1 X127.386 Y119.013 E5.83933
G1 X126.379 Y119.993 E5.9211
G1 X124.88 Y120.858 E6.02182
G1 X123.463 Y121.249 E6.10736
G1 X122.002 Y121.303 E6.19244
G1 X120.683 Y121.056 E6.27053
G1 X119.452 Y120.54 E6.34821
G1 X118.066 Y119.508 E6.44877
G1 X117.179 Y118.415 E6.53069
G1 X116.561 Y117.168 E6.61168
G1 X116.229 Y115.806 E6.69326
G1 X116.206 Y114.401 E6.77503
G1 X116.254 Y114.177 E6.78836
M204 S2500
G1 X116.254 Y114.177 F7200
G1 X116.737 Y114.283
M204 S2000
G1 F3000
G1 X116.995 Y113.103 E6.85865
G1 X117.581 Y111.885 E6.93731
G1 X118.576 Y110.698 E7.02745
G1 X119.607 Y109.947 E7.10168
G1 X120.737 Y109.451 E7.1735
G1 X122.061 Y109.194 E7.25199
G1 X123.55 Y109.279 E7.33878
G1 X124.894 Y109.692 E7.4206
G1 X125.994 Y110.342 E7.49496
G1 X126.897 Y111.183 E7.56677
G1 X127.657 Y112.297 E7.64525
G1 X128.142 Y113.56 E7.72398
G1 X128.322 Y115.099 E7.81415
G1 X128.159 Y116.369 E7.88866
G1 X127.718 Y117.584 E7.96388
G1 X126.982 Y118.716 E8.04246
G1 X126.054 Y119.612 E8.11753
G1 X124.714 Y120.385 E8.20756
G1 X123.412 Y120.751 E8.28627
G1 X122.064 Y120.806 E8.36478
G1 X120.85 Y120.584 E8.4366
G1 X119.673 Y120.091 E8.51086
G1 X118.433 Y119.167 E8.60085
G1 X117.614 Y118.167 E8.67607
G1 X117.022 Y116.972 E8.75368
G1 X116.722 Y115.718 E8.82872
G1 X116.706 Y114.425 E8.90397
G1 X116.724 Y114.341 E8.90897
M204 S2500
G1 X116.724 Y114.341 F7200
G1 X117.206 Y114.448
M204 S2000
G1 F3000
G1 X117.476 Y113.242 E8.98089
G1 X118.017 Y112.131 E9.0528
G1 X118.896 Y111.083 E9.1324
G1 X119.834 Y110.393 E9.20017
G1 X120.911 Y109.92 E9.26862
G1 X122.124 Y109.691 E9.34046
G1 X122.946 Y109.723 E9.38833
G1 X123.431 Y109.765 E9.41666
G1 X124.668 Y110.139 E9.49187
G1 X125.674 Y110.727 E9.55968
G1 X126.535 Y111.529 E9.62816
G1 X127.226 Y112.552 E9.7
G1 X127.663 Y113.708 E9.77192
G1 X127.822 Y115.066 E9.85149
G1 X127.667 Y116.277 E9.92254
G1 X127.259 Y117.383 E9.99114
G1 X126.581 Y118.417 E10.0631
G1 X125.731 Y119.23 E10.13155
G1 X124.547 Y119.913 E10.2111
G1 X123.359 Y120.253 E10.28301
G1 X122.126 Y120.309 E10.35484
G1 X120.968 Y120.097 E10.42335
G1 X119.897 Y119.642 E10.49107
G1 X118.799 Y118.825 E10.57072
G1 X118.048 Y117.917 E10.63929
G1 X117.5 Y116.825 E10.71039
G1 X117.221 Y115.683 E10.7788
G1 X117.207 Y114.508 E10.84718
M204 S2500
G1 X117.207 Y114.508 F7200
G1 X117.706 Y114.505
M204 S2000
G1 F3000
G1 X117.706 Y114.475 E10.84893
G1 X117.956 Y113.384 E10.91407
G1 X118.451 Y112.38 E10.97921
G1 X119.216 Y111.468 E11.04848
G1 X120.107 Y110.813 E11.11283
G1 X121.083 Y110.39 E11.17473
G1 X122.185 Y110.188 E11.23993
G1 X123.317 Y110.253 E11.30592
G1 X124.442 Y110.586 E11.3742
G1 X125.397 Y111.144 E11.43857
G1 X126.171 Y111.873 E11.50045
G1 X126.794 Y112.804 E11.56564
G1 X127.184 Y113.853 E11.63077
G1 X127.322 Y115.035 E11.70002
G1 X127.188 Y116.132 E11.76433
G1 X126.8 Y117.182 E11.82947
G1 X126.181 Y118.116 E11.89468
G1 X125.409 Y118.846 E11.95651
G1 X124.377 Y119.442 E12.02586
G1 X123.303 Y119.755 E12.09096
G1 X122.184 Y119.812 E12.15616
G1 X121.137 Y119.626 E12.21804
G1 X120.119 Y119.194 E12.2824
G1 X119.165 Y118.483 E12.35164
G1 X118.452 Y117.621 E12.41674
G1 X117.961 Y116.63 E12.4811
G1 X117.714 Y115.595 E12.54302
G1 X117.707 Y114.565 E12.60296
M204 S2500
G1 E11.20296 F4800
;WIPE_START
G1 F5760
G1 X117.706 Y114.505 E11.15545
G1 X117.706 Y114.475 E11.1317
G1 X117.855 Y113.824 E10.60296
;WIPE_END
G92 E0
G92 E0
G1 X124.143 Y111.167 F7200
G1 E2 F4800
M204 S2000
;TYPE:External perimeter
G1 F3000
G1 X124.154 Y111.17 E2.00066
G1 X124.992 Y111.653 E2.05695
G1 X125.696 Y112.318 E2.11331
G1 X126.229 Y113.127 E2.16969
G1 X126.56 Y114.038 E2.2261
G1 X126.672 Y115 E2.28246
G1 X126.56 Y115.962 E2.33882
G1 X126.229 Y116.873 E2.39523
G1 X125.696 Y117.682 E2.45161
G1 X124.992 Y118.347 E2.50797
G1 X124.153 Y118.831 E2.56434
G1 X123.224 Y119.109 E2.62077
G1 X122.257 Y119.165 E2.67714
G1 X121.303 Y118.997 E2.73351
G1 X120.414 Y118.613 E2.78987
G1 X119.637 Y118.035 E2.84623
G1 X119.014 Y117.293 E2.90261
G1 X118.579 Y116.427 E2.95901
G1 X118.356 Y115.484 E3.0154
G1 X118.356 Y114.516 E3.07173
G1 X118.579 Y113.573 E3.12812
G1 X119.014 Y112.707 E3.18452
G1 X119.637 Y111.965 E3.2409
G1 X120.414 Y111.387 E3.29726
G1 X121.303 Y111.003 E3.35362
G1 X122.257 Y110.835 E3.40999
G1 X122.883 Y110.871 E3.44648
G1 X123.175 Y110.888 E3.4635
G1 X124.086 Y111.15 E3.51866
M204 S2500
G1 X124.086 Y111.15 F7200
G1 X123.957 Y111.634
M204 S2000
;TYPE:Perimeter
G1 F3000
G1 X124.691 Y112.057 E3.56796
G1 X125.311 Y112.642 E3.61757
G1 X125.779 Y113.353 E3.66711
G1 X126.07 Y114.154 E3.7167
G1 X126.169 Y115 E3.76627
G1 X126.07 Y115.846 E3.81584
G1 X125.779 Y116.647 E3.86543
G1 X125.311 Y117.358 E3.91497
G1 X124.691 Y117.943 E3.96458
G1 X123.953 Y118.369 E4.01417
G1 X123.137 Y118.613 E4.06373
G1 X122.287 Y118.663 E4.11328
G1 X121.448 Y118.515 E4.16286
G1 X120.666 Y118.177 E4.21244
G1 X119.982 Y117.669 E4.26202
G1 X119.435 Y117.016 E4.31159
G1 X119.052 Y116.255 E4.36117
G1 X118.856 Y115.426 E4.41074
G1 X118.856 Y114.574 E4.46032
G1 X119.052 Y113.745 E4.50989
G1 X119.435 Y112.984 E4.55947
G1 X119.982 Y112.331 E4.60904
G1 X120.666 Y111.823 E4.65862
G1 X121.448 Y111.485 E4.7082
G1 X122.287 Y111.337 E4.75778
G1 X122.854 Y111.37 E4.79083
G1 X123.091 Y111.384 E4.80465
G1 X123.9 Y111.617 E4.85364
M204 S2500
G1 E3.45364 F4800
;WIPE_START
G1 F5760
G1 X123.957 Y111.634 E3.40655
G1 X124.562 Y111.983 E2.85364
;WIPE_END
G92 E0
G1 X120.365 Y113.904 F7200
G1 E2 F4800
M204 S2000
;TYPE:External perimeter
G1 F3000
G1 X120.372 Y113.883 E2.00129
G1 X120.702 Y113.405 E2.03509
G1 X121.148 Y113.016 E2.06953
G1 X121.648 Y112.753 E2.10241
G1 X122.212 Y112.614 E2.13621
G1 X122.804 Y112.618 E2.17066
G1 X123.352 Y112.753 E2.2035
G1 X123.865 Y113.022 E2.23721
G1 X124.299 Y113.407 E2.27097
G1 X124.628 Y113.884 E2.30469
G1 X124.835 Y114.44 E2.33922
G1 X124.903 Y115 E2.37205
G1 X124.833 Y115.575 E2.40576
G1 X124.628 Y116.117 E2.43948
G1 X124.299 Y116.593 E2.47315
G1 X123.865 Y116.978 E2.50691
G1 X123.352 Y117.247 E2.54062
G1 X122.79 Y117.385 E2.5743
G1 X122.21 Y117.385 E2.60805
G1 X121.648 Y117.247 E2.64173
G1 X121.135 Y116.978 E2.67544
G1 X120.701 Y116.593 E2.7092
G1 X120.372 Y116.116 E2.74292
G1 X120.165 Y115.56 E2.77745
G1 X120.097 Y115 E2.81028
G1 X120.167 Y114.425 E2.84399
G1 X120.343 Y113.96 E2.87292
M204 S2500
G1 X120.343 Y113.96 F7200
G1 X119.954 Y113.61
M204 S2000
;TYPE:Perimeter
G1 F3000
G1 X120.326 Y113.07 E2.91108
G1 X120.864 Y112.6 E2.95265
G1 X121.469 Y112.282 E2.99243
G1 X122.153 Y112.114 E3.03342
